public/images/icons/twitter-bird.svg

<svg xmlns="http://www.w3.org/2000/svg" width="32" height="32" viewBox="0 0 32 32"><path d="M32.33 3.41c-1.17.52-2.44.87-3.77 1.03 1.36-.81 2.4-2.1 2.89-3.63-1.27.75-2.67 1.3-4.17 1.59-1.2-1.27-2.9-2.07-4.79-2.07-3.63 0-6.57 2.94-6.57 6.57 0 .51.06 1.01.17 1.49-5.45-.27-10.29-2.89-13.53-6.86-.56.97-.89 2.1-.89 3.3 0 2.28 1.16 4.29 2.92 5.47-1.07-.04-2.09-.33-2.97-.82v.08c0 3.18 2.26 5.83 5.27 6.43-.56.15-1.14.23-1.73.23-.43 0-.84-.04-1.24-.11.84 2.6 3.26 4.5 6.13 4.55-2.24 1.76-5.07 2.81-8.15 2.81-.53 0-1.05-.03-1.57-.09 2.91 1.86 6.36 2.95 10.07 2.95 12.07 0 18.68-10 18.68-18.67 0-.29-.01-.57-.02-.85 1.28-.93 2.39-2.08 3.27-3.4"/></svg>

<svg xmlns="http://www.w3.org/2000/svg" xmlns:xlink="http://www.w3.org/1999/xlink" xmlns:sketch="http://www.bohemiancoding.com/sketch/ns" width="32" height="32" viewBox="0 0 32 32" version="1.1"><path d="M32.33 3.41C31.16 3.93 29.89 4.28 28.56 4.44 29.92 3.63 30.96 2.34 31.45 0.81 30.18 1.56 28.78 2.11 27.28 2.4 26.08 1.13 24.38 0.33 22.49 0.33 18.86 0.33 15.92 3.27 15.92 6.9 15.92 7.41 15.98 7.91 16.09 8.39 10.64 8.12 5.8 5.5 2.56 1.53 2 2.5 1.67 3.63 1.67 4.83 1.67 7.11 2.83 9.12 4.59 10.3 3.52 10.26 2.5 9.97 1.62 9.48 1.62 9.5 1.62 9.53 1.62 9.56 1.62 12.74 3.88 15.39 6.89 15.99 6.33 16.14 5.75 16.22 5.16 16.22 4.73 16.22 4.32 16.18 3.92 16.11 4.76 18.71 7.18 20.61 10.05 20.66 7.81 22.42 4.98 23.47 1.9 23.47 1.37 23.47 0.85 23.44 0.33 23.38 3.24 25.24 6.69 26.33 10.4 26.33 22.47 26.33 29.08 16.33 29.08 7.66 29.08 7.37 29.07 7.09 29.06 6.81 30.34 5.88 31.45 4.73 32.33 3.41"/></svg>
